icon-themes/sifr_svg/cmd/sc_leftpaneimpress.svg

<svg viewBox="0 0 16 16" xmlns="http://www.w3.org/2000/svg"><path d="m14 1v14h-2-5v-2-1h2v1h3v-10h-3v1h-2v-3h2 3zm-8 0v3h-1v8h1v3h-4v-14zm2 4c.30945 0 .55232.09029.75.28125l2.25 1.84375v1.7050781c-1.0834649.9581337-1.1665323 1.0680429-2.25 1.8886719-.19768.19095-.44055.28125-.75.28125h-.5859375-.4140625v-1c0-.25689.12983-.52846.3125-.71875l.5097656-.28125h-1.8222656v-2h1.8222656l-.5097656-.28125c-.18267-.19029-.3125-.46186-.3125-.71875v-1h.4140625z" fill="#555753"/></svg>

<svg xmlns="http://www.w3.org/2000/svg" viewBox="0 0 16 16">
  <path
     style="fill:#555753"
     d="M 14,1 V 15 H 12 7 v -2 -1 h 2 v 1 h 3 V 3 H 9 V 4 H 7 V 1 h 2 3 z M 6,1 V 4 H 5 v 8 h 1 v 3 H 2 V 1 Z M 8,5 C 8.30945,5 8.55232,5.09029 8.75,5.28125 L 11,7.125 V 8.8300781 C 9.9165351,9.7882118 9.8334677,9.898121 8.75,10.71875 8.55232,10.9097 8.30945,11 8,11 H 7.4140625 7 V 10 C 7,9.74311 7.12983,9.47154 7.3125,9.28125 L 7.8222656,9 H 6 V 7 H 7.8222656 L 7.3125,6.71875 C 7.12983,6.52846 7,6.25689 7,6 V 5 h 0.4140625 z"
     />
</svg>
